dist/images/services-icons/surgery.svg

<svg width="48" height="48" viewBox="0 0 48 48" fill="none" xmlns="http://www.w3.org/2000/svg">
<circle cx="24" cy="24" r="23.5" fill="#FCFAF7" stroke="#BDA37E"/>
<path fill-rule="evenodd" clip-rule="evenodd" d="M25.2682 30.9095C25.8058 30.9095 26.3061 31.0685 26.7248 31.3421L27.9359 9.57617L28.6016 9.61321L29.2672 9.57617L30.4782 31.3421C30.897 31.0685 31.3974 30.9095 31.9349 30.9095C33.4076 30.9095 34.6016 32.1034 34.6016 33.5762C34.6016 35.0489 33.4076 36.2428 31.9349 36.2428C30.4688 36.2428 29.2791 35.0598 29.2683 33.5963L29.1192 30.9176H28.0838L27.9348 33.5963C27.924 35.0598 26.7342 36.2428 25.2682 36.2428C23.7954 36.2428 22.6016 35.0489 22.6016 33.5762C22.6016 32.1034 23.7954 30.9095 25.2682 30.9095ZM28.6016 21.6134L29.045 29.5843H28.158L28.6016 21.6134ZM28.6016 19.5994C28.9698 19.5994 29.2682 19.3013 29.2682 18.9336C29.2682 18.566 28.9698 18.2679 28.6016 18.2679C28.2334 18.2679 27.9349 18.566 27.9349 18.9336C27.9349 19.3013 28.2334 19.5994 28.6016 19.5994ZM25.2682 32.2428C24.5318 32.2428 23.9349 32.8398 23.9349 33.5762C23.9349 34.3126 24.5318 34.9095 25.2682 34.9095C26.0046 34.9095 26.6016 34.3126 26.6016 33.5762C26.6016 32.8398 26.0046 32.2428 25.2682 32.2428ZM30.6016 33.5762C30.6016 32.8398 31.1985 32.2428 31.9349 32.2428C32.6713 32.2428 33.2682 32.8398 33.2682 33.5762C33.2682 34.3126 32.6713 34.9095 31.9349 34.9095C31.1985 34.9095 30.6016 34.3126 30.6016 33.5762Z" fill="#BDA37E"/>
<path fill-rule="evenodd" clip-rule="evenodd" d="M19.9381 9.73242L18.9284 10.3382L19.2714 10.9099C18.9284 10.3382 18.9275 10.3388 18.9275 10.3388L18.9265 10.3394L18.9244 10.3407L18.9194 10.3437L18.9072 10.3514C18.8979 10.3573 18.8865 10.3647 18.8731 10.3737C18.8464 10.3917 18.8116 10.4162 18.77 10.4477C18.6867 10.5108 18.576 10.602 18.4464 10.7266C18.187 10.9761 17.8541 11.3575 17.5161 11.9102C16.8386 13.0184 16.1549 14.7921 15.9806 17.5321C15.9274 18.3671 16.4105 19.0709 17.0998 19.3912C16.7942 19.6933 16.6048 20.1128 16.6048 20.5765V34.5765C16.6048 35.497 17.351 36.2432 18.2714 36.2432C19.1919 36.2432 19.9381 35.497 19.9381 34.5765V20.5765C19.9381 19.9808 19.6256 19.4581 19.1555 19.1634C19.6314 18.7978 19.9381 18.223 19.9381 17.5765V9.73242ZM17.3112 17.6167C17.4688 15.1407 18.066 13.5997 18.6048 12.6872V17.5765C18.6048 17.9447 18.3063 18.2432 17.9381 18.2432C17.559 18.2432 17.2906 17.9406 17.3112 17.6167ZM18.6048 20.6337V20.5765C18.6048 20.3925 18.4555 20.2432 18.2714 20.2432C18.0873 20.2432 17.9381 20.3925 17.9381 20.5765V21.3004L18.6048 20.6337ZM18.6048 22.5193V23.3004L17.9381 23.9671V23.186L18.6048 22.5193ZM18.6048 25.9671V25.186L17.9381 25.8527V26.6337L18.6048 25.9671ZM18.6048 27.8527V34.5765C18.6048 34.7606 18.4555 34.9099 18.2714 34.9099C18.0873 34.9099 17.9381 34.7606 17.9381 34.5765V28.5193L18.6048 27.8527Z" fill="#BDA37E"/>
</svg>

<svg width="48" height="48" fill="none" xmlns="http://www.w3.org/2000/svg"><circle cx="24" cy="24" r="23.5" fill="#FCFAF7" stroke="#BDA37E"/><path fill-rule="evenodd" clip-rule="evenodd" d="M25.268 30.91a2.66 2.66 0 011.457.432l1.21-21.766.667.037.665-.037 1.211 21.766a2.667 2.667 0 11-1.21 2.254l-.149-2.678h-1.035l-.15 2.678a2.667 2.667 0 11-2.666-2.686zm3.334-9.297l.443 7.971h-.887l.444-7.97zm0-2.014a.666.666 0 100-1.332.666.666 0 000 1.332zm-3.334 12.644a1.333 1.333 0 100 2.666 1.333 1.333 0 000-2.666zm5.334 1.333a1.333 1.333 0 112.666 0 1.333 1.333 0 01-2.666 0zM19.938 9.732l-1.01.606.343.572c-.343-.572-.344-.571-.344-.571l-.003.002-.005.003-.012.007a1.565 1.565 0 00-.137.097 3.657 3.657 0 00-.324.279c-.259.25-.592.63-.93 1.183-.677 1.108-1.361 2.882-1.535 5.622a1.91 1.91 0 001.119 1.86 1.662 1.662 0 00-.495 1.184v14a1.667 1.667 0 103.333 0v-14c0-.595-.312-1.118-.782-1.413.475-.365.782-.94.782-1.587V9.732zm-2.627 7.885c.158-2.476.755-4.017 1.294-4.93v4.89a.667.667 0 01-.667.666c-.379 0-.647-.302-.627-.626zm1.294 3.017v-.058a.333.333 0 00-.667 0v.724l.667-.666zm0 1.885v.781l-.667.667v-.781l.667-.667zm0 3.448v-.781l-.667.667v.78l.667-.666zm0 1.886v6.724a.333.333 0 01-.667 0v-6.058l.667-.666z" fill="#BDA37E"/></svg>
